crop-portrait.svg

<svg fill="currentColor" viewBox="0 0 24 24"><path d="M17 19H7V5h10m0-2H7a2 2 0 0 0-2 2v14a2 2 0 0 0 2 2h10a2 2 0 0 0 2-2V5a2 2 0 0 0-2-2"/></svg>

<svg  viewBox="0 0 24 24" fill="currentColor"><path  d="M17,19H7V5H17M17,3H7A2,2 0 0,0 5,5V19A2,2 0 0,0 7,21H17A2,2 0 0,0 19,19V5C19,3.89 18.1,3 17,3Z"/></svg>
